web-magafilio/image/home/icon-users.svg

<svg width="60" height="43" viewBox="0 0 60 43" fill="none" xmlns="http://www.w3.org/2000/svg">
<path d="M51 18.2454C55.125 18.2454 58.5 14.9641 58.5 10.7454C58.5 6.62036 55.125 3.24536 51 3.24536C46.7812 3.24536 43.5 6.62036 43.5 10.7454C43.5 14.9641 46.7812 18.2454 51 18.2454ZM51 6.24536C53.4375 6.24536 55.5 8.30786 55.5 10.7454C55.5 13.2766 53.4375 15.2454 51 15.2454C48.4688 15.2454 46.5 13.2766 46.5 10.7454C46.5 8.30786 48.4688 6.24536 51 6.24536ZM30 21.2454C35.7188 21.2454 40.5 16.5579 40.5 10.7454C40.5 5.02661 35.7188 0.245361 30 0.245361C24.1875 0.245361 19.5 5.02661 19.5 10.7454C19.5 16.5579 24.1875 21.2454 30 21.2454ZM30 3.24536C34.125 3.24536 37.5 6.62036 37.5 10.7454C37.5 14.9641 34.125 18.2454 30 18.2454C25.7812 18.2454 22.5 14.9641 22.5 10.7454C22.5 6.62036 25.7812 3.24536 30 3.24536ZM52.875 21.2454H49.125C47.625 21.2454 46.3125 21.7141 45.1875 22.4641C46.125 23.1204 46.875 23.7766 47.625 24.6204C48.0938 24.4329 48.5625 24.2454 49.125 24.2454H52.875C55.125 24.2454 57 26.3079 57 28.7454C57 29.5891 57.6562 30.2454 58.5 30.2454C59.25 30.2454 60 29.5891 60 28.7454C60 24.6204 56.7188 21.2454 52.875 21.2454ZM9 18.2454C13.125 18.2454 16.5 14.9641 16.5 10.7454C16.5 6.62036 13.125 3.24536 9 3.24536C4.78125 3.24536 1.5 6.62036 1.5 10.7454C1.5 14.9641 4.78125 18.2454 9 18.2454ZM9 6.24536C11.4375 6.24536 13.5 8.30786 13.5 10.7454C13.5 13.2766 11.4375 15.2454 9 15.2454C6.46875 15.2454 4.5 13.2766 4.5 10.7454C4.5 8.30786 6.46875 6.24536 9 6.24536ZM37.5 23.1204C34.3125 23.1204 33.5625 24.2454 30 24.2454C26.3438 24.2454 25.5938 23.1204 22.4062 23.1204C19.0312 23.1204 15.75 24.7141 13.7812 27.5266C12.6562 29.3079 12 31.3704 12 33.6204V37.7454C12 40.2766 13.9688 42.2454 16.5 42.2454H43.5C45.9375 42.2454 48 40.2766 48 37.7454V33.6204C48 31.3704 47.25 29.3079 46.125 27.5266C44.1562 24.7141 40.875 23.1204 37.5 23.1204ZM45 37.7454C45 38.5891 44.25 39.2454 43.5 39.2454H16.5C15.6562 39.2454 15 38.5891 15 37.7454V33.6204C15 32.0266 15.375 30.5266 16.3125 29.2141C17.5312 27.3391 19.875 26.1204 22.4062 26.1204C25.0312 26.1204 25.9688 27.2454 30 27.2454C34.0312 27.2454 34.875 26.1204 37.5 26.1204C40.0312 26.1204 42.375 27.3391 43.5938 29.2141C44.5312 30.5266 44.9062 32.0266 44.9062 33.6204V37.7454H45ZM14.7188 22.4641C13.5938 21.7141 12.2812 21.2454 10.875 21.2454H7.125C3.1875 21.2454 0 24.6204 0 28.7454C0 29.5891 0.65625 30.2454 1.5 30.2454C2.25 30.2454 3 29.5891 3 28.7454C3 26.3079 4.78125 24.2454 7.125 24.2454H10.875C11.3438 24.2454 11.8125 24.4329 12.2812 24.6204C13.0312 23.7766 13.7812 23.1204 14.7188 22.4641Z" fill="#FDAA08"/>
</svg>

<svg width="60" height="43" fill="none" xmlns="http://www.w3.org/2000/svg"><path d="M51 18.245c4.125 0 7.5-3.28 7.5-7.5 0-4.125-3.375-7.5-7.5-7.5-4.219 0-7.5 3.375-7.5 7.5 0 4.22 3.281 7.5 7.5 7.5zm0-12c2.438 0 4.5 2.063 4.5 4.5 0 2.532-2.063 4.5-4.5 4.5-2.531 0-4.5-1.968-4.5-4.5 0-2.437 1.969-4.5 4.5-4.5zm-21 15c5.719 0 10.5-4.687 10.5-10.5 0-5.718-4.781-10.5-10.5-10.5-5.813 0-10.5 4.782-10.5 10.5 0 5.813 4.688 10.5 10.5 10.5zm0-18c4.125 0 7.5 3.375 7.5 7.5 0 4.22-3.375 7.5-7.5 7.5-4.219 0-7.5-3.28-7.5-7.5 0-4.125 3.281-7.5 7.5-7.5zm22.875 18h-3.75c-1.5 0-2.813.47-3.938 1.22a13.388 13.388 0 012.438 2.155c.469-.187.938-.375 1.5-.375h3.75c2.25 0 4.125 2.063 4.125 4.5 0 .844.656 1.5 1.5 1.5.75 0 1.5-.656 1.5-1.5 0-4.125-3.281-7.5-7.125-7.5zM9 18.245c4.125 0 7.5-3.28 7.5-7.5 0-4.125-3.375-7.5-7.5-7.5-4.219 0-7.5 3.375-7.5 7.5 0 4.22 3.281 7.5 7.5 7.5zm0-12c2.438 0 4.5 2.063 4.5 4.5 0 2.532-2.063 4.5-4.5 4.5-2.531 0-4.5-1.968-4.5-4.5 0-2.437 1.969-4.5 4.5-4.5zM37.5 23.12c-3.188 0-3.938 1.125-7.5 1.125-3.656 0-4.406-1.125-7.594-1.125-3.375 0-6.656 1.594-8.625 4.407C12.656 29.307 12 31.37 12 33.62v4.125c0 2.532 1.969 4.5 4.5 4.5h27c2.438 0 4.5-1.968 4.5-4.5V33.62c0-2.25-.75-4.312-1.875-6.093-1.969-2.813-5.25-4.407-8.625-4.407zM45 37.745c0 .844-.75 1.5-1.5 1.5h-27a1.48 1.48 0 01-1.5-1.5V33.62c0-1.593.375-3.093 1.313-4.406 1.218-1.875 3.562-3.094 6.093-3.094 2.625 0 3.563 1.125 7.594 1.125 4.031 0 4.875-1.125 7.5-1.125 2.531 0 4.875 1.22 6.094 3.094.937 1.313 1.312 2.813 1.312 4.406v4.125H45zm-30.281-15.28c-1.125-.75-2.438-1.22-3.844-1.22h-3.75C3.187 21.245 0 24.62 0 28.745c0 .844.656 1.5 1.5 1.5.75 0 1.5-.656 1.5-1.5 0-2.437 1.781-4.5 4.125-4.5h3.75c.469 0 .938.188 1.406.375.75-.843 1.5-1.5 2.438-2.156z" fill="#FDAA08"/></svg>
